X:1
T:Non salvatur Rex
T:Pierre de la Rue
T:Source : Bicinia---Tomus I---Wittemberg---G.Rhau---1545. Editor :  André Vierendeels (13/06/17).
T:Notes : Original clefs : G3, C3 Editorial accidentals above the staff Original note values have been halved Dotted brackets indicate black notes   
T:Non salvatur Rex
T:©
T:©
C:Pierre de la Rue
Z:©
%%score [ 1 2 ]
L:1/8
Q:1/4=120
M:2/2
K:C
V:1 treble nm="Soprano" snm="S"
V:2 treble-8 nm="Tenor" snm="T"
V:1
 z4 D4 | DEFG A2 D2 | F3 G A2 B2 | c8- | c8 | c8 |"^b" B6 AG | A2 G4 c2- | c2 B4 AG | A4 D4 | %10
w: Non|sal- * * * va- tur|_ _ _ _|Rex|_|per|mul- * *|tum vir- tu-||* tem,|
 z2 c4 B2- | B2 AG A2 D2- | DEFG A2 B2 | c2 B4 AG | A2 D2 DEFG | A2 B2 c3 B | AG G4 F2 | G8 | %18
w: et Gi-|* * * gas in|_ _ _ _ mul- ti-|tu- di ne _|_ vir- tu- * * *|* tis su- *||ae,|
 z4 G4 | E3 F D4 | C4 z2 G2 | A2 B2 E4 | z2 G2 A2 B2 | EFGA F2 E2 | z2 B2 c2 BA | G2 A2 z2 B2 | %26
w: fal-|lax e- qu-|us ad|sa- lu- tem|in a- bun-|dan- * * * ti- a,|vir- tu- tis _|su- ae non|
 c3 A B2 c2- | cABc d2 c2 | c2 B2 c4 | z2 G2 A3 c | B2 A2 A2 G2 | A3 c B2 A2 | A2 G2 F2 E2 | %33
w: sal- * * *|va- * * * * *|bi- * tur,|ec- ce _|o- culi Do- *|ni su- per _|tu- en- tes e-|
 D4 z2 G2 | A3 G F2 E2 | D2 G3 F ED | C4 z2 c2- | cB AG FEDC | D8 | z2 d2 c3 B | AGFE DEFD | %41
w: um, ut|e- ru- at a-|mor te _ _ _|_ a-|* ni- mas _ e- * * *|um|||
 E3 D C2 B,2 | A,4 B,4- | B,8 |] %44
w: |||
V:2
 d8 | d8 | d4 d4 | A4 z4 | A2 AB cd e2 | A2 c3 d e2 | f2 g4 fe | f2 e4 e2- | e2 dc d2 e2 | %9
w: Non|sal-|va- tur|Rex,|non sal- * * * *|va- tur rex per|mul- * * *|* tum vir-|* * * * tu-|
 f4 z2 f2- | f2 e4 dc | d2 c2 f4 | z2 f4 e2 | e2 dc d2 c2 | f3 e d2 c2 | f2 e4 cd | c2 G2 A4 | %17
w: tem, et|_ Gi- * *|* * gas|in mul-|ti- * * tu- di|ne _ _ vir-|tu- * * *|* tis su-|
"^#" G8- | G8 | z8 | g4 e3 f | d4 c2 g2 | e3 f d4 | c4 z2 c2 | d2 e2 A4 | z2 c2 d2 e2 | A3 c d e3 | %27
w: ae,|_||fal- lax e-|qu- us, fal-|lax e- qu-|us, ad|sa- lu- tem|in a- bun-|dan- * ti- a|
 A2 e2 fedc | d4 c4- | c4 z2 A2 | G2 A3 c B2 | A3 G G2 A2- | Ac B2 A2 c2 | c2 B2 c4- | c4 z2 c2- | %35
w: vir- tu- tis _ _ _|su- ae,|_ ec-|ce o- cu- li|Do- mi- ni su-|* per me- tu- en-|tes e- um,|_ ut|
 dcBA G2 g2- | gf ed cB AG | A4 z2 g2 | f3 e dcBA | GABG A4- | A4 z2 d2 | c3 B AG G2 | %42
w: e- * * ru- at a-|* ni- mas _ e- * o- *|rum et|a- * * * * *||||
"^#" G2 F2 G4- | G8 |] %44
w: |me.|

